X:1
T:Je ne fais riens
T:Je ne fais riens
T:Thomas Crecquillon
C:Thomas Crecquillon
%%score [ 1 [ 2 3 ] 4 ]
L:1/8
Q:1/4=80
M:2/2
K:F
V:1 treble nm="Superius" snm="S"
V:2 treble-8 nm="Tenor 1" snm="T 1"
V:3 treble-8 nm="Tenor 2" snm="T 2"
V:4 bass nm="Bass" snm="B"
V:1
 z8 | F8 | B6 A2 | G4 G4 | G2 G2 A4- | A2 G2 F2 ED | E4 z2 E2 | F2 E2 DEFG | A2 A4 F2 | G2 A2 B4 | %10
w: |Je|ne fais|riens que|plain- dr'et sous-|* * * spi- *|rer, re-|gret- tant plus _ _ _|_ ce que|moins _ puis|
w: |Et|sens mon|mal chas-|cung jour em-|* * * pi- *|rer en|voi- ant moins _ _ _|_ ce que|plus _ _|
 A3 G FE F2 | D4 C4- | !fermata!C8 :| z8 | z4 C4 | F4 G4 | A4 z2 c2 | c2 B2 A2 A2 | G2 B4 A2- | %19
w: |a- voir,|_||Veoir|sam- ble|peu à|qui s'en peult pour-||
w: _ _ _ _ je|veulx veoir.|_|||||||
 A2 G2 A4- | A2 F2 F2 B2- | BA AG/F/ E2 F2- | F2 E2 D2 D2 | F3 G A2 B2 | c2 d4 c2- | cB B4 A2 | %26
w: * * veoir,|_ mais j'ay co-||* * gnu par|vray ex pe- ri-|en- * *||
w: |||||||
 B2 d2 d2 d2 | A2 c2 c2 c2 | A2 A2 B2 B2 | A3 G F4 | E2 c2 B2 A2- | AG G4 F2 | G4 z2 c2- | %33
w: ce, que quant on|faict, que quant on|faict en a- mour|son- * *||* * * deb-|voir, il|
w: |||||||
 c2 B2 A4 |: G2 c2 c2 B2 | A6 G2 | F6 E2 | DEFG A2 B2 | A2 G4 F2- |[M:2/4] F2 E2 | F4 | %41
w: _ n'est en-|nuy, il n'est en-|nuy que|l'en- nuy|d'u- * * * * ne'ab-|sen- * *|||
w: ||||||||
[M:2/2] C4 z2 c2- |1 c2 B2 A4 :|2 DEFG A2 B2 || A2 G3 F F2- | F2 E2 F4 | C8- | C8- | C8 |] %49
w: ce, il|_ n'est en-|d'u- * * * * ne'ab-|sen- * * *||ce.|_||
w: ||||||||
V:2
 c4 f4 | d4 c2 c2 | g6 f2 | e2 d2 e4- | e2 e2 f2 FG | AB c4 B2 | c6 c2 | d2 c2 A4 | f4 f2 f2 | %9
w: Je ne|fais riens que|plain- dr'et|sous- * *||* * * pi-|rer, re-|gret- tant plus|ce que moins|
w: Et sens|mon mal chas-|cung jour|em- * *||* * * pi-|rer en|voi- ant moins|ce que plus|
 d2 f4 e2 | f2 F2 c2 c2 | B3 A G4 | !fermata!A8 :| c4 f4 | e3 d cB AG | F2 f4 e2 | f2 f2 a4 | %17
w: puis _ a-|voir, ce que moins|puis _ a-|voir,|Veoir sam-||* * ble|peu à qui|
w: je veulx _|veoir, ce que plus|je _ veulx|veoir.|||||
 g3 f e2 f2 | d2 g4 f2- | f2 e2 f4 | z2 c2 d4- | d2 A2 c4- | c2 c2 f3 e | d4 c2 d2 | e2 d2 f4 | %25
w: s'en _ _ peult|pour- * *|* * veoir,|mais j'ay|_ co- gnu|_ par vray ex-|pe- ri en-|ce, ex- pe-|
w: ||||||||
 g4 f4 | d4 f4 | f2 f2 c4 | z4 z2 f2 | f2 f2 c2 c2 | cd ef g2 f2 | e2 c2 d4 | e2 e2 f4 | %33
w: ri- en-|ce, que|quant on faict,|que|quant on faict en|a- * * * mour son|deb- * voir,|il n'est en-|
w: ||||||||
 g4 c2 f2- |: f2 e2 f2 d2 | c2 f2 f2 e2 | d2 d2 c3 B | A2 d2 e2 f2- | f2 e2 d4 |[M:2/4] c4 | %40
w: nuy, il n'est|_ _ _ en-|nuy que l'en- nuy|d'u- ne'ab- sen- *||||
w: |||||||
 A2 a2- |[M:2/2] a2 g4 f2 |1 g4 c2 f2 :|2 A2 d2 e2 f2- || f2 e2 d4 | c4 A4 | F2 G2 A4 | G4 A4- | %48
w: ce, il|_ n'est en-|nuy, il n'est|(sen)- * * *||||* ce.|
w: ||||||||
 A8 |] %49
w: _|
w: |
V:3
 z4 F4 | B6 A2 | G2 G2 c4- | c2 B2 c2 G2 | c3 B A2 c2 | F2 G2 A2 F2 | G4 z2 G2 | B2 G2 F2 F2 | %8
w: Je|ne fais|riens, je ne|_ fais riens que|plain- dr'et sous- *|* * * pi-|rer, re-|gret- tant plus ce|
w: Et|sens mon|mal chas- *|cung jour em- *||* * * pi-|rer en|voi- ant moins ce|
 FG AB c2 d2- | d2 c4 B2 | c3 B AG A2 | G2 F4 E2 | !fermata!F8 :| z4 F4 | c3 B A4- | A2 F2 c4- | %16
w: que _ _ _ _ moins|_ puis _||* * a-|voir,|Veoir|sam- * *|* ble- peu|
w: que _ _ _ _ plus|_ je veulx|veoir, ce que _ plus|je _ veulx|veoir.-||||
 c2 c2 f4 | e2 d3 c c2- | c2 B2 c3 d | B4 A4- | A2 A2 B4 | F4 G4- | G4 B4 | B2 B2 A2 F2 | %24
w: _ à qui|s'en peult _ pour-||* veoir|_ mais j'ay|co- gnu|_ par|vray ex- pe- ri-|
w: ||||||||
 G2 B2 c4 |"^b" d2 e2 c4 | B4 z4 | z2 f2 f2 f2 | c2 c2 d4 | c3 B A2 A2 | G6 A2 | B2 AG A4 | %32
w: en- * *||ce,|que quant on|faict en a-|mour _ _ son|_ deb-|voir, _ _ _|
w: ||||||||
 c4 z2 c2 | d2 e2 f4 |: c4 z4 | c4 c2 B2 | A6 G2 | FG AB c2 d2 | c4 F2 A2 |[M:2/4] G4 | F2 f2 | %41
w: _ il|n'est _ en-|nuy,|il n'est en-|nuy que|l'en- * * * nuy d'u-|ne'ab- sen- *||ce, il|
w: |||||||||
[M:2/2] f2 e2 d2 c2 |1 d2 e2 f4 :|2 FG AB c2 d2 || c4 F2 A2 | G4 F3 G | A2 G4 F2- | F2 E2 F4- | %48
w: n'est- en- nuy, il|n'est _ en-|l'en- * * * nuy d'u-|ne'ab sen- *|||* * ce.|
w: |||||||
 F8 |] %49
w: _|
w: |
V:4
 F,4 D,2 B,,2- | B,,C, D,E, F,2 F,2 | _E,6 F,2 | G,2 G,2 C,4 | z2 C,2 F,4- | F,2 E,2 D,2 D,2 | %6
w: Je ne fais|_ _ _ _ riens que|plain- dr'et|sous- pi- rer,|et sous-|* * * pi-|
w: Et sens mon|_ _ _ _ mal chas-|cung jour|em- pi- rer,|chas- cung|_ jour em- pi-|
 C,4 z2 C,2 | B,,2 C,2 D,2 D,2 | D,E, F,G, A,2 B,2- | B,2 A,2 G,4 | F,2 F,2 F,2 F,2 | B,,4 C,4 | %12
w: rer, re-|gret- tant plus ce|que _ _ _ _ moins|_ puis _|veoir, ce que moins|puis a-|
w: rer en|voi- ant moins ce|que _ _ _ _ plus|_ je veulx|veoir, ce que plus|je veulx|
 !fermata!F,8 :| z8 | C,4 F,4 | D,4 C,4 | z2 F,2 F,G,A,B, | C2 G,2 A,2 F,2 | G,4 _E,2 F,2 | %19
w: voir,||Veoir sam-|ble peu|à qui _ _ _|_ s'en peult poour-||
w: veoir.|||||||
 G,4 F,4- | F,2 F,2 B,,4 | D,4 C,4- | C,4 B,,4 | B,,C, D,E, F,2 D,2 | C,2 G,2 F,2 A,2 | %25
w: * veoir,|_ mais j'ay|co- gnu|_ par|vray _ _ _ _ ex-|pe- ri- en- *|
w: ||||||
 G,2 _E,2 F,4 | z2 B,2 B,2 B,2 | F,4 z2 F,2 | F,2 F,2 B,,4 | F,4 F,2 F,2 | C,3 D, _E,2 F,2 | %31
w: * * ce,|que quant on|faict, que|quant on faict|en a- mour|son _ _ deb-|
w: ||||||
 G,2 E,2 D,4 | C,2 C2 B,2 A,2 | G,4 F,4 |: z2 C2 A,2 B,2 | F,6 G,2 | D,3 E, F,2 C,2 | %37
w: |voir, il n'est _|en- nuy,|il n'est en-|nuy que|l'en- * * nuy|
w: ||||||
 D,4 C,2 B,,2 | F,2 C,2 D,2 F,2 |[M:2/4] C,4 | F,4 |[M:2/2] z2 C2 B,2 A,2 |1 G,4 F,4 :|2 %43
w: d'u ne'ab sen-|||ce,|il n'est _|l'en- nuy,|
w: ||||||
 D,4 C,2 B,,2 || F,2 C,2 D,2 F,2 | C,4 z2 F,2- | F,2 E,2 F,4 | C,4 F,4- | F,8 |] %49
w: d'u- ne'ab- sen-||ce, d'u-|* ne'ab- sen-|* ce.|_|
w: ||||||

